X: 25521
T: Margaret's Pint
R: strathspey
M: 4/4
K: Adorian
"Amin" EA,A,B, CEDB,|"G" G,B,DG EDB,D|"Amin" EA,A,B, CEDB,|"G" G,GDB, CA,B,G,|
"Amin" EA,A,B, CEDB,|"G" G,B,DG EDB,D|"Amin" EA,A,B, CEDB,|"G" G,GDB, CA,A,2|
"Amin" EA AB cB AF|"G" GA Bd dB AG|"Amin" EA AB cB AF|"G" GEDG EA,A2|
"Amin" EA AB cB AF|"G" GA Bd dB A2|"Emin" Be Bd BA GE|"G" DB,GB, B,A,GB,|

